!!!SOCIAL_FUNCTION: war songs
!!!PDT:	1929
!!!LING_GROUP: Caddoan
!!!LANG: Non-Tone
!!!REG: Oklahoma
!!!COM: Anon.
!!!OTL: Women's War Song
!!!ODT: <1920//
!!!MPN: Tsastawinahiigat [She led a phony into the ceremony, Effie Blain]
!!!MLC: Pawnee, Oklahoma, United States of America
!! Song was recorded either 1919 or 1920.
!!!AGN: monody
!!!AMT: irregular
!!!RWG: Transcribed pitches, durations, and meters are only approximate.
!! Drum not recorded
**kern
*ICvox
*Ifemale
*clefG2
*k[b-e-a-]
*[A,B,A]
*>A
*M3/4
*MM63
=!|:1
12g
12f
12e-
(4.g
8f)
=2
8f
[8c
4c]
4c
=3
12g
12f
12e-
4.g
8f
=4
8f
[8c
4c]
4c
=5
12c
12c
12B
2c
=6
8e-
8c
2c
=7
8f
8c
8g
8f
8c
8c
*M7/8
=8
8fL
8cJ
8gL
8fJ
8e-L
8cJ
8c
*M3/4
=9
4c
8c
8c
8f
*M2/4
=10
4c
8c
8r
*M7/8
=11
8e-L
8cJ
8cL
8cJ
8cL
8cJ
8Bn
*M2/4
=12
2c
!! Fine
*>B
=13
8e-
8c
4c
=:|!
*-
!!!HAO: [no description]
!!!HTX: [no free translation]
!!!CNT: Pawnee
!!!TXO: Pawnee
!!!OCY: United States
!!!OCL: Frances Densmore
!!!YOR: Frances Densmore, "Pawnee Music"
!!!YOR: Bulletin 93, page 68, No. 38
!!!PPR: Smithsonian Institution, Bureau of American Ethnology
!!!PPR: Government Printing Office
!!!PDT: 1926
!!!PPP: Washington, DC, United States of America
!!!YEC: Electronic Copyright 2000 David Huron
!!!YER: September 2000
!!!YEN: United States of America
!!!ENC: David Huron
!!!RDT: September 3, 2000
!!!EEV: Release 1.0
!!!AIN: vox
